; HEADER_BLOCK_START
; generated by Creality_Print V5.1.2.9904 on 2025-03-02 at 20:21:06
; total layer number: 88
; filament_density: 1.24
; filament_diameter: 1.75
; max_z_height: 17.48
; HEADER_BLOCK_END

; MINX = 78.10
; MINY = 76.43
; MINZ = 0.00
; MAXX = 141.90
; MAXY = 143.57
; MAXZ = 17.40

; THUMBNAIL_BLOCK_START

;
; THUMBNAIL_BLOCK_END

; THUMBNAIL_BLOCK_START

;
; THUMBNAIL_BLOCK_END

; external perimeters extrusion width = 0.40mm
; perimeters extrusion width = 0.42mm
; infill extrusion width = 0.45mm
; solid infill extrusion width = 0.42mm
; top infill extrusion width = 0.40mm
; first layer extrusion width = 0.50mm

; EXECUTABLE_BLOCK_START
EXCLUDE_OBJECT_DEFINE NAME=S3_SHELL_AND_COVER.stl_id_0_copy_0 CENTER=110,110 POLYGON=[[78.1,116.967],[79.4,76.8329],[90.3,76.4329],[129.7,76.4329],[140.6,76.8329],[141.1,86.8329],[141.9,116.967],[141.9,141.767],[141.865,142.118],[141.855,142.168],[141.763,142.456],[141.722,142.548],[141.597,142.767],[141.507,142.889],[141.373,143.04],[141.222,143.174],[141.1,143.264],[140.881,143.389],[140.789,143.43],[140.501,143.522],[140.451,143.532],[140.1,143.567],[79.9,143.567],[79.5488,143.532],[79.4995,143.522],[79.2112,143.43],[79.119,143.389],[78.9,143.264],[78.7777,143.174],[78.6272,143.04],[78.4927,142.889],[78.4034,142.767],[78.2783,142.548],[78.237,142.456],[78.1451,142.168],[78.1346,142.118],[78.1,141.767],[78.1,116.967]]
M73 P0 R18
;TYPE:Custom
M220 S100 ;Reset Feedrate 
M221 S100 ;Reset Flowrate 
 
M140 S50 ;Set final bed temp  
G28 ;Home 
 
G92 E0 ;Reset Extruder 
G1 Z2.0 F3000 ;Move Z Axis up 
M104 S220 ;Set final nozzle temp  
G1 X-2.0 Y20 Z0.28 F5000.0 ;Move to start position 
M190 S50 ;Wait for bed temp to stabilize  
M109 S220 ;Wait for nozzle temp to stabilize  
G1 X-2.0 Y145.0 Z0.28 F1500.0 E15 ;Draw the first line 
G1 X-1.7 Y145.0 Z0.28 F5000.0 ;Move to side a little 
G1 X-1.7 Y20 Z0.28 F1500.0 E30 ;Draw the second line 
G92 E0 ;Reset Extruder 
G1 E-1.0000 F1800 ;Retract a bit 
G1 Z2.0 F3000 ;Move Z Axis up 
G1 E0.0000 F1800
G90
G21
M83 ; use relative distances for extrusion
; filament start gcode
M106 S0
;LAYER_CHANGE
;Z:0.08
;HEIGHT:0.08
;BEFORE_LAYER_CHANGE
;0.08
G92 E0

G1 E-.5 F2400
;_SET_FAN_SPEED_CHANGING_LAYER
SET_VELOCITY_LIMIT ACCEL=500 ACCEL_TO_DECEL=125
SET_VELOCITY_LIMIT SQUARE_CORNER_VELOCITY=10
; printing object S3_SHELL_AND_COVER.stl id:0 copy 0
EXCLUDE_OBJECT_START NAME=S3_SHELL_AND_COVER.stl_id_0_copy_0
G1 Z.1 F18000
G1 X135.244 Y142.474
G1 Z.1
M73 P1 R18
G1 Z.08
G1 E.5 F2400
;TYPE:Inner wall
;WIDTH:0.499999
G1 F3000
G1 X130.508 Y142.474 E.07224
G1 X130.793 Y142.136 E.00675
G1 X130.793 Y116.598 E.3896
G1 X130.457 Y116.263 E.00724
G1 X135.241 Y116.263 E.07299
G1 X134.973 Y116.658 E.00728
G1 X134.787 Y117.128 E.00771
G1 X134.707 Y117.707 E.00891
G1 X134.707 Y123.028 E.08118
G1 X134.749 Y123.444 E.00638
G1 X134.897 Y123.921 E.00762
G1 X135.147 Y124.353 E.00762
G1 X135.487 Y124.719 E.00762
G1 X135.9 Y125 E.00762
G1 X136.397 Y125.192 E.00813
G1 X136.94 Y125.26 E.00834
G1 X140.807 Y125.26 E.05901
G1 X140.807 Y133.474 E.12532
G1 X136.94 Y133.474 E.05901
G1 X136.523 Y133.517 E.00638
G1 X136.046 Y133.664 E.00762
G1 X135.614 Y133.914 E.00762
G1 X135.248 Y134.254 E.00762
G1 X134.968 Y134.667 E.00762
G1 X134.786 Y135.132 E.00762
G1 X134.707 Y135.707 E.00884
G1 X134.707 Y141.028 E.08118
G1 X134.786 Y141.602 E.00884
G1 X134.967 Y142.066 E.00761
G1 X135.221 Y142.441 E.00691
G1 E-.35 F2400
;WIPE_START
G1 F3000
G1 X134.221 Y142.448 E-.15
;WIPE_END
G1 Z.18 F18000
G1 X141.354 Y116.686 Z.18
G1 Z.08
G1 E.5 F2400
;TYPE:Outer wall
;WIDTH:0.357168
G1 F3000
G1 X141.369 Y117.404 E.00772
G1 E-.35 F2400
;WIPE_START
G1 F3000
G1 X141.354 Y116.686 E-.15
;WIPE_END
G1 Z.18 F18000
G1 X137.333 Y118.1 Z.18
G1 Z.08
G1 E.5 F2400
;TYPE:Inner wall
;WIDTH:0.499999
G1 F3000
G1 X140.807 Y118.1 E.053
G1 X140.807 Y122.634 E.06918
G1 X137.333 Y122.634 E.053
G1 X137.333 Y118.14 E.06857
G1 E-.35 F2400
;WIPE_START
G1 F3000
G1 X138.333 Y118.128 E-.15
;WIPE_END
G1 Z.18 F18000
G1 X141.37 Y123.358 Z.18
G1 Z.08
G1 E.5 F2400
;TYPE:Outer wall
;WIDTH:0.357168
G1 F3000
G1 X141.369 Y124.564 E.01295
G1 E-.35 F2400
;WIPE_START
G1 F3000
G1 X141.37 Y123.564 E-.15
;WIPE_END
G1 Z.18 F18000
G1 X136.935 Y117.702 Z.18
G1 Z.08
G1 E.5 F2400
;WIDTH:0.499999
G1 F3000
G1 X137.132 Y117.617 E.00328
G1 X141.209 Y117.604 E.06219
;WIDTH:0.47695
G1 X141.262 Y117.537 E.00124
;WIDTH:0.437023
G1 X141.315 Y117.471 E.00114
;WIDTH:0.397095
G1 X141.369 Y117.404 E.00103
G1 X141.347 Y117.502 E.00121
;WIDTH:0.437023
G1 X141.325 Y117.6 E.00134
;WIDTH:0.47695
G1 X141.303 Y117.698 E.00146
;WIDTH:0.499999
G1 X141.298 Y123.036 E.08142
;WIDTH:0.48605
G1 X141.322 Y123.143 E.00163
;WIDTH:0.443089
G1 X141.346 Y123.251 E.00148
;WIDTH:0.400129
G1 X141.37 Y123.358 E.00133
G1 X141.316 Y123.281 E.00115
;WIDTH:0.443089
G1 X141.262 Y123.203 E.00127
;WIDTH:0.48605
G1 X141.209 Y123.125 E.0014
;WIDTH:0.499999
G1 X137.132 Y123.117 E.06219
G1 X136.935 Y123.032 E.00328
G1 X136.85 Y122.835 E.00328
G1 X136.85 Y117.899 E.07529
G1 X136.919 Y117.739 E.00267
G1 E-.35 F2400
;WIPE_START
G1 F3000
G1 X137.132 Y117.617 E-.03681
G1 X137.887 Y117.615 E-.11319
;WIPE_END
G1 Z.18 F18000
G1 X141.37 Y134.198 Z.18
G1 Z.08
G1 E.5 F2400
;WIDTH:0.357168
G1 F3000
G1 X141.369 Y135.404 E.01295
G1 E-.35 F2400
;WIPE_START
G1 F3000
G1 X141.37 Y134.404 E-.15
;WIPE_END
G1 Z.18 F18000
G1 X140.807 Y140.634 Z.18
G1 Z.08
G1 E.5 F2400
;TYPE:Inner wall
;WIDTH:0.499999
G1 F3000
G1 X137.333 Y140.634 E.053
G1 X137.333 Y136.1 E.06918
G1 X140.807 Y136.1 E.053
G1 X140.807 Y140.594 E.06857
G1 X141.37 Y141.358 F18000
;TYPE:Outer wall
;WIDTH:0.357168
G1 F3000
G1 X141.349 Y142.082 E.00777
G1 X141.37 Y141.358 F18000
;WIDTH:0.400129
G1 F3000
G1 X141.316 Y141.281 E.00115
;WIDTH:0.443089
G1 X141.262 Y141.203 E.00127
;WIDTH:0.48605
G1 X141.209 Y141.125 E.0014
;WIDTH:0.499999
G1 X137.132 Y141.117 E.06219
G1 X136.935 Y141.032 E.00328
G1 X136.85 Y140.835 E.00328
G1 X136.85 Y135.899 E.07529
G1 X136.935 Y135.702 E.00328
G1 X137.132 Y135.617 E.00328
G1 X141.209 Y135.604 E.06219
;WIDTH:0.47695
G1 X141.262 Y135.537 E.00124
;WIDTH:0.437023
G1 X141.315 Y135.471 E.00114
;WIDTH:0.397095
G1 X141.369 Y135.404 E.00103
G1 X141.347 Y135.502 E.00121
;WIDTH:0.437023
G1 X141.325 Y135.6 E.00134
;WIDTH:0.47695
G1 X141.303 Y135.698 E.00146
;WIDTH:0.499999
G1 X141.298 Y141.036 E.08142
;WIDTH:0.48605
G1 X141.322 Y141.143 E.00163
;WIDTH:0.443089
G1 X141.346 Y141.251 E.00148
;WIDTH:0.400129
G1 X141.361 Y141.319 E.00085
G1 E-.35 F2400
;WIPE_START
G1 F3000
G1 X141.316 Y141.281 E-.00892
G1 X141.262 Y141.203 E-.0142
G1 X141.209 Y141.125 E-.0142
G1 X140.457 Y141.123 E-.11268
;WIPE_END
G1 Z.18 F18000
G1 X83.327 Y116.26 Z.18
G1 Z.08
G1 E.5 F2400
;TYPE:Inner wall
;WIDTH:0.499999
G1 F3000
G1 X83.043 Y116.598 E.00674
G1 X83.043 Y142.136 E.3896
G1 X83.381 Y142.474 E.00731
G1 X79.781 Y142.474 E.05493
G1 X79.472 Y142.323 E.00524
G1 X79.265 Y142.067 E.00503
G1 X79.193 Y141.726 E.00531
G1 X79.193 Y116.848 E.37955
G1 X79.344 Y116.539 E.00524
G1 X79.6 Y116.332 E.00503
G1 X79.941 Y116.26 E.00531
G1 X83.287 Y116.26 E.05105
G1 E-.35 F2400
;WIPE_START
G1 F3000
G1 X83.043 Y116.598 E-.0626
G1 X83.043 Y117.181 E-.0874
;WIPE_END
G1 Z.18 F18000
G1 X130.31 Y116.598 Z.18
G1 Z.08
M73 P2 R18
G1 E.5 F2400
;TYPE:Outer wall
G1 F3000
G1 X130.31 Y142.136 E.3896
;WIDTH:0.548584
G1 X130.113 Y142.401 E.00555
G1 X83.767 Y142.401 E.77821
G1 X83.526 Y142.136 E.00603
;WIDTH:0.499999
G1 X83.526 Y116.598 E.3896
;WIDTH:0.548473
G1 X83.722 Y116.333 E.00555
G1 X130.069 Y116.333 E.77805
;WIDTH:0.547144
G1 X130.283 Y116.569 E.00533
G1 E-.35 F2400
;WIPE_START
G1 F3000
G1 X130.284 Y117.569 E-.15
;WIPE_END
G1 Z.18 F18000
G1 X140.957 Y142.694 Z.18
G1 Z.08
G1 E.5 F2400
;WIDTH:0.334046
G1 F3000
G1 X140.655 Y142.91 E.00372
G1 X140.395 Y143.002 E.00276
;WIDTH:0.348583
G1 X140.081 Y143.033 E.0033
G1 X136.908 Y143.033 E.03323
;WIDTH:0.386437
G1 X136.718 Y143.014 E.00223
;WIDTH:0.424291
G1 X136.527 Y142.995 E.00246
;WIDTH:0.462145
G1 X136.337 Y142.976 E.00269
;WIDTH:0.499999
G1 X136.147 Y142.957 E.00292
G1 X131.131 Y142.957 E.07652
;WIDTH:0.548584
G1 X130.069 Y142.933 E.01785
G1 X83.767 Y142.933 E.77746
M73 P2 R17
G1 X82.704 Y142.957 E.01785
;WIDTH:0.499999
G1 X79.999 Y142.957 E.04127
G1 X79.609 Y142.917 E.00599
G1 X79.293 Y142.78 E.00525
G1 X78.963 Y142.497 E.00665
G1 X78.784 Y142.155 E.00588
G1 X78.71 Y141.753 E.00623
G1 X78.71 Y117.066 E.37662
G1 X78.75 Y116.676 E.00599
G1 X78.887 Y116.36 E.00525
G1 X79.171 Y116.03 E.00665
G1 X79.512 Y115.851 E.00588
G1 X79.914 Y115.777 E.00623
G1 X82.705 Y115.777 E.04257
;WIDTH:0.548473
G1 X83.767 Y115.802 E.01784
G1 X130.069 Y115.804 E.7773
;WIDTH:0.547144
G1 X131.129 Y115.78 E.01775
;WIDTH:0.499999
G1 X136.061 Y115.78 E.07525
G1 X136.204 Y115.761 E.0022
;WIDTH:0.462351
G1 X136.347 Y115.743 E.00203
;WIDTH:0.424704
G1 X136.49 Y115.724 E.00186
;WIDTH:0.387056
G1 X136.94 Y115.704 E.00526
;WIDTH:0.346855
G1 X140.3 Y115.704 E.03501
G1 X140.631 Y115.813 E.00363
;WIDTH:0.334093
G1 X140.959 Y116.04 E.00399
G1 X140.856 Y116.04 E.00103
;WIDTH:0.346947
G1 X136.925 Y116.034 E.04096
;WIDTH:0.384913
G1 X136.747 Y116.055 E.00208
;WIDTH:0.422879
G1 X136.569 Y116.076 E.0023
;WIDTH:0.460844
G1 X136.391 Y116.097 E.00251
;WIDTH:0.49881
G1 X136.213 Y116.118 E.00273
;WIDTH:0.499999
G1 X135.871 Y116.323 E.00608
G1 X135.589 Y116.596 E.00599
G1 X135.382 Y116.915 E.0058
G1 X135.242 Y117.29 E.00611
G1 X135.19 Y117.707 E.0064
G1 X135.19 Y123.028 E.08118
G1 X135.229 Y123.39 E.00556
G1 X135.353 Y123.761 E.00597
G1 X135.556 Y124.096 E.00597
G1 X135.829 Y124.377 E.00597
G1 X136.157 Y124.591 E.00597
G1 X136.525 Y124.726 E.00597
G1 X136.94 Y124.777 E.00638
G1 X141.209 Y124.764 E.06513
;WIDTH:0.47695
G1 X141.262 Y124.697 E.00124
;WIDTH:0.437023
G1 X141.315 Y124.631 E.00114
;WIDTH:0.397095
G1 X141.369 Y124.564 E.00103
G1 X141.347 Y124.662 E.00121
;WIDTH:0.437023
G1 X141.325 Y124.76 E.00134
;WIDTH:0.47695
G1 X141.303 Y124.858 E.00146
;WIDTH:0.499999
G1 X141.298 Y133.876 E.13757
;WIDTH:0.48605
G1 X141.322 Y133.983 E.00163
;WIDTH:0.443089
G1 X141.346 Y134.091 E.00148
;WIDTH:0.400129
G1 X141.37 Y134.198 E.00133
G1 X141.316 Y134.121 E.00115
;WIDTH:0.443089
G1 X141.262 Y134.043 E.00127
;WIDTH:0.48605
G1 X141.209 Y133.965 E.0014
;WIDTH:0.499999
G1 X136.94 Y133.957 E.06513
G1 X136.577 Y133.996 E.00556
G1 X136.206 Y134.12 E.00597
G1 X135.871 Y134.323 E.00597
G1 X135.59 Y134.596 E.00597
G1 X135.376 Y134.924 E.00597
G1 X135.241 Y135.292 E.00597
G1 X135.19 Y135.707 E.00638
G1 X135.19 Y140.517 E.07339
G1 X135.229 Y141.39 E.01333
G1 X135.353 Y141.761 E.00597
G1 X135.556 Y142.096 E.00597
G1 X135.828 Y142.377 E.00597
G1 X136.205 Y142.614 E.0068
G1 X136.389 Y142.636 E.00282
;WIDTH:0.462145
G1 X136.572 Y142.658 E.0026
;WIDTH:0.424291
G1 X136.756 Y142.679 E.00238
;WIDTH:0.386437
G1 X136.94 Y142.701 E.00216
;WIDTH:0.348581
G1 X140.344 Y142.694 E.03565
;WIDTH:0.334046
G1 X140.917 Y142.694 E.00574
G1 E-.35 F2400
;WIPE_START
G1 F3000
G1 X140.655 Y142.91 E-.05098
G1 X140.395 Y143.002 E-.0413
G1 X140.081 Y143.033 E-.04734
G1 X140.012 Y143.033 E-.01039
;WIPE_END
G1 Z.18 F18000
G1 X139.684 Y136.245
G1 Z.18
G1 Z.08
G1 E.5 F2400
;TYPE:Bottom surface
;WIDTH:0.50095
G1 F6300
G1 X140.445 Y137.006 E.01645
G1 X140.445 Y137.69 E.01046
G1 X139.217 Y136.462 E.02654
G1 X138.533 Y136.462 E.01046
G1 X140.445 Y138.374 E.04133
G1 X140.445 Y139.058 E.01046
G1 X137.849 Y136.462 E.05612
G1 X137.695 Y136.462 E.00236
G1 X137.695 Y136.992 E.0081
G1 X140.445 Y139.742 E.05945
G1 X140.445 Y140.272 E.0081
G1 X140.291 Y140.272 E.00236
G1 X137.695 Y137.676 E.05612
G1 X137.695 Y138.36 E.01046
G1 X139.607 Y140.272 E.04133
G1 X138.922 Y140.272 E.01046
G1 X137.695 Y139.045 E.02654
G1 X137.695 Y139.729 E.01046
G1 X138.456 Y140.489 E.01644
G1 E-.35 F2400
;WIPE_START
G1 F6300
G1 X137.748 Y139.782 E-.15
;WIPE_END
G1 Z.18 F18000
G1 X140.159 Y125.405 Z.18
G1 Z.08
M73 P3 R17
G1 E.5 F2400
;WIDTH:0.511099
G1 F6300
G1 X140.445 Y125.69 E.00631
G1 X140.445 Y126.389 E.0109
G1 X139.678 Y125.622 E.01693
G1 X138.98 Y125.622 E.0109
G1 X140.445 Y127.087 E.03235
G1 X140.445 Y127.786 E.0109
G1 X138.281 Y125.622 E.04776
G1 X137.583 Y125.622 E.0109
G1 X140.445 Y128.485 E.06318
G1 X140.445 Y129.183 E.0109
G1 X136.636 Y125.374 E.08407
G1 E-.35 F2400
;WIPE_START
G1 F6300
G1 X137.343 Y126.081 E-.15
;WIPE_END
G1 Z.18 F18000
G1 X133.957 Y116.408 Z.18
G1 Z.08
G1 E.5 F2400
G1 F6300
G1 X134.475 Y116.926 E.01144
G1 X134.39 Y117.244 E.00513
G1 X134.364 Y117.513 E.00423
G1 X133.475 Y116.625 E.01961
G1 X132.777 Y116.625 E.0109
G1 X134.346 Y118.194 E.03463
G1 X134.346 Y118.893 E.01091
G1 X132.078 Y116.625 E.05006
G1 X131.38 Y116.625 E.0109
G1 X134.347 Y119.593 E.0655
G1 X134.348 Y120.292 E.01091
G1 X131.155 Y117.099 E.07047
G1 X131.155 Y117.797 E.0109
G1 X134.349 Y120.991 E.07049
G1 X134.35 Y121.69 E.01091
G1 X131.155 Y118.496 E.07051
G1 X131.155 Y119.194 E.0109
G1 X134.35 Y122.39 E.07053
G1 X134.351 Y123.089 E.01091
G1 X131.155 Y119.893 E.07054
G1 X131.155 Y120.591 E.0109
G1 X140.445 Y129.882 E.20505
G1 X140.445 Y130.58 E.0109
G1 X131.155 Y121.29 E.20505
G1 X131.155 Y121.989 E.0109
G1 X140.445 Y131.279 E.20505
G1 X140.445 Y131.977 E.0109
G1 X131.155 Y122.687 E.20505
G1 X131.155 Y123.386 E.0109
G1 X140.445 Y132.676 E.20505
G1 X140.445 Y133.112 E.00681
G1 X140.183 Y133.112 E.00409
G1 X131.155 Y124.084 E.19926
G1 X131.155 Y124.783 E.0109
G1 X139.484 Y133.112 E.18384
G1 X138.786 Y133.112 E.0109
G1 X131.155 Y125.481 E.16843
G1 X131.155 Y126.18 E.0109
G1 X138.087 Y133.112 E.15301
G1 X137.389 Y133.112 E.0109
G1 X131.155 Y126.878 E.13759
G1 X131.155 Y127.577 E.0109
G1 X136.712 Y133.134 E.12266
G1 X136.478 Y133.157 E.00367
G1 X136.131 Y133.251 E.00561
G1 X131.155 Y128.275 E.10983
G1 X131.155 Y128.974 E.0109
G1 X135.647 Y133.466 E.09915
G1 X135.416 Y133.611 E.00427
G1 X135.237 Y133.754 E.00357
G1 X131.155 Y129.672 E.09009
G1 X131.155 Y130.371 E.0109
G1 X134.899 Y134.115 E.08263
G1 X134.628 Y134.542 E.0079
G1 X131.155 Y131.069 E.07665
G1 X131.155 Y131.768 E.0109
G1 X134.435 Y135.048 E.07239
G1 X134.39 Y135.244 E.00314
G1 X134.349 Y135.66 E.00653
G1 X131.155 Y132.466 E.0705
G1 X131.155 Y133.165 E.0109
G1 X134.345 Y136.355 E.07041
G1 X134.345 Y137.054 E.0109
G1 X131.155 Y133.863 E.07041
G1 X131.155 Y134.562 E.0109
G1 X134.345 Y137.752 E.07041
G1 X134.345 Y138.451 E.0109
G1 X131.155 Y135.26 E.07041
G1 X131.155 Y135.959 E.0109
G1 X134.345 Y139.149 E.07041
G1 X134.345 Y139.848 E.0109
G1 X131.155 Y136.658 E.07041
G1 X131.155 Y137.356 E.0109
G1 X134.345 Y140.546 E.07041
G1 X134.345 Y141.034 E.00761
G1 X134.368 Y141.268 E.00368
G1 X131.155 Y138.055 E.07092
G1 X131.155 Y138.753 E.0109
G1 X134.514 Y142.112 E.07414
G1 X133.815 Y142.112 E.0109
G1 X131.155 Y139.452 E.05872
G1 X131.155 Y140.15 E.0109
G1 X133.117 Y142.112 E.0433
G1 X132.418 Y142.112 E.0109
G1 X131.155 Y140.849 E.02789
G1 X131.155 Y141.547 E.0109
G1 X131.937 Y142.329 E.01726
G1 E-.35 F2400
;WIPE_START
G1 F6300
G1 X131.23 Y141.622 E-.15
;WIPE_END
G1 Z.18 F18000
G1 X134.569 Y141.79 Z.18
G1 Z.08
G1 E.5 F2400
;TYPE:Gap infill
;WIDTH:0.110246
G1 F3000
G1 X134.41 Y141.521 E.00092
G1 E-.35 F2400
;WIPE_START
G1 F3000
G1 X134.569 Y141.79 E-.15
;WIPE_END
G1 Z.18 F18000
G1 X131.044 Y116.504 Z.18
G1 Z.08
G1 E.5 F2400
;WIDTH:0.0733129
G1 F3000
G1 X131.083 Y116.861 E.00064
G1 E-.35 F2400
;WIPE_START
G1 F3000
G1 X131.044 Y116.504 E-.15
;WIPE_END
G1 Z.18 F18000
G1 X134.61 Y116.504 Z.18
G1 Z.08
M73 P4 R17
G1 E.5 F2400
;WIDTH:0.082465
G1 F3000
G1 X134.659 Y116.761 E.00054
G1 E-.35 F2400
;WIPE_START
G1 F3000
G1 X134.61 Y116.504 E-.15
;WIPE_END
G1 Z.18 F18000
G1 X134.523 Y123.55 Z.18
G1 Z.08
G1 E.5 F2400
;WIDTH:0.0747965
G1 F3000
G1 X134.49 Y123.536 E.00007
G1 X134.389 Y123.341 E.0004
G1 E-.35 F2400
;WIPE_START
G1 F3000
G1 X134.49 Y123.536 E-.12876
G1 X134.523 Y123.55 E-.02124
;WIPE_END
G1 Z.18 F18000
G1 X140.662 Y119.223 Z.18
G1 Z.08
G1 E.5 F2400
;TYPE:Bottom surface
;WIDTH:0.50095
G1 F6300
G1 X139.902 Y118.462 E.01645
G1 X139.217 Y118.462 E.01046
G1 X140.445 Y119.69 E.02654
G1 X140.445 Y120.374 E.01046
G1 X138.533 Y118.462 E.04133
G1 X137.849 Y118.462 E.01046
G1 X140.445 Y121.058 E.05612
G1 X140.445 Y121.742 E.01046
